src/lib/packages/icons/src/assets/filled/star-half.svg

<svg width="24" height="24" viewBox="0 0 24 24" fill="none" xmlns="http://www.w3.org/2000/svg">
<path d="M20.75 11.41C21.34 10.84 21.01 9.83002 20.19 9.71002L15.71 9.06C15.38 9.01 15.1 8.81001 14.95 8.51001L13.01 4.59998C12.82 4.19998 12.4301 4 12.0501 4C11.6701 4 11.28 4.19998 11.09 4.59998L9.15004 8.51001C9.00004 8.81001 8.72003 9.01 8.39003 9.06L3.91005 9.71002C3.09005 9.83002 2.75999 10.84 3.34999 11.41L6.59999 14.56C6.82999 14.79 6.94002 15.12 6.88002 15.44L6.14003 19.75C6.02003 20.44 6.56997 21 7.19997 21C7.35997 21 7.52997 20.96 7.69997 20.88L11.58 18.84C11.73 18.76 11.8901 18.73 12.0501 18.73C12.2101 18.73 12.37 18.76 12.52 18.84L16.4 20.88C16.57 20.96 16.74 21 16.9 21C17.53 21 18.08 20.44 17.96 19.75L17.22 15.44C17.16 15.12 17.27 14.79 17.5 14.56L20.75 11.41ZM16.46 13.48C15.87 14.06 15.6 14.89 15.74 15.7L16.33 19.14L13.21 17.51C12.85 17.32 12.4501 17.23 12.0501 17.23V6.03003L13.61 9.17999C13.98 9.91999 14.68 10.43 15.49 10.54L18.97 11.05L16.46 13.48Z" fill="currentColor"/>
</svg>

<svg xmlns="http://www.w3.org/2000/svg" width="24" height="24" fill="none"><path fill="currentColor" d="M20.75 11.41c.59-.57.26-1.58-.56-1.7l-4.48-.65a1.01 1.01 0 0 1-.76-.55L13.01 4.6c-.19-.4-.58-.6-.96-.6s-.77.2-.96.6L9.15 8.51c-.15.3-.43.5-.76.55l-4.48.65c-.82.12-1.15 1.13-.56 1.7l3.25 3.15c.23.23.34.56.28.88l-.74 4.31c-.12.69.43 1.25 1.06 1.25.16 0 .33-.04.5-.12l3.88-2.04c.15-.08.31-.11.47-.11.16 0 .32.03.47.11l3.88 2.04c.17.08.34.12.5.12.63 0 1.18-.56 1.06-1.25l-.74-4.31c-.06-.32.05-.65.28-.88l3.25-3.15Zm-4.29 2.07c-.59.58-.86 1.41-.72 2.22l.59 3.44-3.12-1.63c-.36-.19-.76-.28-1.16-.28V6.03l1.56 3.15a2.48 2.48 0 0 0 1.88 1.36l3.48.51-2.51 2.43Z"/></svg>
